X: 32769
T: Polwart On The Green
R: reel
M: 4/4
K: Dmajor
B2|{G}F2 ED {B}A2 GF|A4 z2 de|f2 ef gfed|e4 z2|
{G}F2 ED {B}A2 GF|G3 A B2 AG|A3 f gf ef|d6||
de|fg ab a2 gf|ef ga g2 fe|d3 e de fg|e4 z2|
{G}F2 ED {B}A2 GF|G3 A B2 AG|A2 f2 gf ef|d6||

